src/icons/search.svg

<?xml version="1.0" encoding="UTF-8"?>
<svg width="20px" height="20px" viewBox="0 0 20 20" version="1.1" xmlns="http://www.w3.org/2000/svg" xmlns:xlink="http://www.w3.org/1999/xlink" xmlns:sketch="http://www.bohemiancoding.com/sketch/ns">
    <!-- Generator: Sketch 3.3.1 (12002) - http://www.bohemiancoding.com/sketch -->
    <title>Shape</title>
    <desc>Created with Sketch.</desc>
    <defs></defs>
    <g id="Page-1" stroke="none" stroke-width="1" fill="none" fill-rule="evenodd" sketch:type="MSPage">
        <path d="M19.0164036,18.2176458 L14.2561584,13.2667521 C15.4801011,11.8117841 16.1507065,9.98113661 16.1507065,8.07535324 C16.1507065,3.62267369 12.5280328,0 8.07535324,0 C3.62267369,0 0,3.62267369 0,8.07535324 C0,12.5280328 3.62267369,16.1507065 8.07535324,16.1507065 C9.74695136,16.1507065 11.3399026,15.6465236 12.7018284,14.6894187 L17.4982372,19.6778803 C17.6987166,19.886084 17.9683632,20.0008945 18.2573204,20.0008945 C18.5308291,20.0008945 18.7902937,19.8966171 18.9872621,19.7070218 C19.405776,19.3043075 19.4191179,18.6365109 19.0164036,18.2176458 L19.0164036,18.2176458 Z M8.07535324,2.10661389 C11.3665863,2.10661389 14.0440926,4.78412014 14.0440926,8.07535324 C14.0440926,11.3665863 11.3665863,14.0440926 8.07535324,14.0440926 C4.78412014,14.0440926 2.10661389,11.3665863 2.10661389,8.07535324 C2.10661389,4.78412014 4.78412014,2.10661389 8.07535324,2.10661389 L8.07535324,2.10661389 Z" id="Shape" fill="#000000" sketch:type="MSShapeGroup"></path>
    </g>
</svg>

<svg xmlns="http://www.w3.org/2000/svg" width="20" height="20" viewBox="0 0 20 20">
    <path fill="#000000" fill-rule="nonzero" d="M19.016 18.217l-4.76-4.95a8.049 8.049 0 0 0 1.894-5.192C16.15 3.623 12.527 0 8.075 0 3.623 0 0 3.623 0 8.075c0 4.452 3.623 8.075 8.075 8.075a7.989 7.989 0 0 0 4.626-1.461l4.796 4.988c.2.208.47.323.76.323a1.055 1.055 0 0 0 .759-1.783zM8.075 2.107a5.975 5.975 0 0 1 5.968 5.968 5.975 5.975 0 0 1-5.968 5.968 5.975 5.975 0 0 1-5.968-5.968 5.975 5.975 0 0 1 5.968-5.968z"/>
</svg>
